PortableApps/LibreOfficePortable/App/libreoffice/help/media/icon-themes/cmd/sc_renameslide.svg

<svg viewBox="0 0 16 16" xmlns="http://www.w3.org/2000/svg"><path d="m1 4v11h6c0-1.090703.9092972-2 2-2h1v-4h-1.0351562c-1.0717811 0-1.9648438-.8930623-1.9648438-1.9648438v-.0703124c0-1.0717811.8930627-1.9648438 1.9648438-1.9648438h6.0351562v-1zm13 5v4h1v-4z" fill="#fff"/><path d="m0 3v13h1 6.2832031c-.1754644-.296519-.2832031-.636031-.2832031-1h-6v-11h14v1h.035156c.350674 0 .677455.1033441.964844.2695312v-1.2695312-1zm16 5.7304688c-.287389.1661871-.61417.2695312-.964844.2695312h-.035156v4c.363969 0 .703481.107739 1 .283203zm-14 .2695312v1h5v-1zm7 0v1h1v-1zm-7 2v1h5v-1zm7 0v1h1v-1zm-7 2v1h5v-1z" fill="#808080"/><path d="m0 0h16v2h-16z" fill="#4d82b8"/><path d="m2 6v2h5.2695312c-.1661871-.2873887-.2695312-.6141702-.2695312-.9648438v-.0703124c0-.3506735.1033441-.6774552.2695312-.9648438z" fill="#eac282"/><path d="m8.964844 6.0000003c-.534081 0-.964844.430763-.964844.964844v.07031c0 .534083.430763.964846.964844.964846h2.035156v5.9999997h-2c-.554 0-1 .446-1 1s.446 1 1 1h6c.554 0 1-.446 1-1s-.446-1-1-1h-2v-5.9999997h2.035156c.534081 0 .964844-.430763.964844-.964844v-.07031c0-.534083-.430763-.964846-.964844-.964846z" fill="#4d82b8"/></svg>

<svg viewBox="0 0 16 16" xmlns="http://www.w3.org/2000/svg">
  <path d="M 1 4 L 1 15 L 7 15 C 7 13.909297 7.9092972 13 9 13 L 10 13 L 10 9 L 8.9648438 9 C 7.8930627 9 7 8.1069377 7 7.0351562 L 7 6.9648438 C 7 5.8930627 7.8930627 5 8.9648438 5 L 15 5 L 15 4 L 1 4 z M 14 9 L 14 13 L 15 13 L 15 9 L 14 9 z " fill="#ffffff"/> 
  <path d="M 0 3 L 0 16 L 1 16 L 7.2832031 16 C 7.1077387 15.703481 7 15.363969 7 15 L 1 15 L 1 4 L 15 4 L 15 5 L 15.035156 5 C 15.38583 5 15.712611 5.1033441 16 5.2695312 L 16 4 L 16 3 L 0 3 z M 16 8.7304688 C 15.712611 8.8966559 15.38583 9 15.035156 9 L 15 9 L 15 13 C 15.363969 13 15.703481 13.107739 16 13.283203 L 16 8.7304688 z M 2 9 L 2 10 L 7 10 L 7 9 L 2 9 z M 9 9 L 9 10 L 10 10 L 10 9 L 9 9 z M 2 11 L 2 12 L 7 12 L 7 11 L 2 11 z M 9 11 L 9 12 L 10 12 L 10 11 L 9 11 z M 2 13 L 2 14 L 7 14 L 7 13 L 2 13 z " fill="#808080"/> 
  <path d="m0 0h16v2h-16z" fill="#4d82b8"/> 
  <path d="M 2 6 L 2 8 L 7.2695312 8 C 7.1033441 7.7126113 7 7.3858298 7 7.0351562 L 7 6.9648438 C 7 6.6141703 7.1033441 6.2873886 7.2695312 6 L 2 6 z " fill="#eac282"/> 
  <path d="M 8.964844,6.0000003 C 8.430763,6.0000003 8,6.4307633 8,6.9648443 v 0.07031 c 0,0.534083 0.430763,0.964846 0.964844,0.964846 H 11 V 14 H 9 c -0.554,0 -1,0.446 -1,1 0,0.554 0.446,1 1,1 h 6 c 0.554,0 1,-0.446 1,-1 0,-0.554 -0.446,-1 -1,-1 H 13 V 8.0000003 h 2.035156 C 15.569237,8.0000003 16,7.5692373 16,7.0351563 v -0.07031 c 0,-0.534083 -0.430763,-0.964846 -0.964844,-0.964846 z" fill="#4d82b8"/>
</svg>
